X:220
T:Jigging the Donkey
L:1/8
M:4/4
K:DDor
A,DDE FEFG|(3ABc GcAd d2|A,DDE FAdB|cAGE ED D2|
A,DDE FEFG|(3ABc GcAd de|efed dcAB|cAGE ED D2|
d3 B (3ccc cA|AddB cAGA|AddB (3ccc cA|GEcE ED D2|
d3 B ccc cA|AddB cAGe|efed dcAB|cAGE ED D2 |>|
